X:1
T:Tumba-Bloody-Rumba
M:4/4
L:1/8
K:F
c/2-B/2| AF FF CF FF| EF GA B3/2- G/2 c3/2 B/2| AF FF CF FF| Gc BG F2|\
 F3/2 c/2| cf ff cd _e3/2 d/2| cB AFE-F G3/2 A/2| AA BB cc d3/2 B/2|\
 AF GE F2| F3/2 c/2| AF FF CF FF| EF GAB-G c3/2 B/2| AF FF CF FF| Gc BG|\
 F2 F||

